X:9
T:The Rambler
S:American Veteran Fifer, #9
M:6/8
L:1/8
Q:1/8=300
K:D 
%%MIDI program 72
%%MIDI transpose 8
%%MIDI ratio 3 1
|: A2d cBA | fga gec | ded cAF | GFG AFD |
A2d cBA | fga gec | ded cAF | Adc d3 :|
|: fad fad | fga agf | egc egc | efg gfe |
fga gab | afd ecA | fed cAG | Adc d3 :|


